icons/mariadb-light.svg

<svg width="256" height="256" viewBox="0 0 256 256" fill="none" xmlns="http://www.w3.org/2000/svg">
<rect width="256" height="256" rx="60" fill="#F4F2ED"/>
<path d="M223.611 62.0035C220.52 62.1023 221.498 62.9929 214.819 64.6365C208.075 66.2962 199.836 65.7873 192.574 68.8332C170.893 77.9256 166.543 109.002 146.834 120.134C132.101 128.456 117.237 129.12 103.874 133.307C95.0921 136.061 85.4853 141.708 77.5285 148.565C71.3523 153.889 71.1911 158.571 64.738 165.249C57.8355 172.391 37.3048 165.369 28 176.301C30.9974 179.332 32.3115 180.181 38.2185 179.395C36.9955 181.713 29.7864 183.666 31.1976 187.076C32.6825 190.664 50.1111 193.096 65.9544 183.531C73.3329 179.076 79.2099 172.655 90.7013 171.122C105.572 169.14 122.702 172.394 139.917 174.876C137.364 182.487 132.24 187.549 128.134 193.61C126.863 194.979 130.688 195.133 135.051 194.305C142.9 192.364 148.556 190.802 154.48 187.354C161.757 183.117 162.86 172.256 171.789 169.906C176.764 177.552 190.295 179.359 198.691 173.243C191.323 171.157 189.287 155.475 191.774 148.565C194.13 142.024 196.457 131.561 198.83 122.915C201.377 113.629 202.316 101.925 205.399 97.1947C210.036 90.0782 215.161 87.6344 219.61 83.6215C224.058 79.6085 228.13 75.7023 227.997 66.5198C227.954 63.5622 226.425 61.9136 223.611 62.0035Z" fill="#002B64"/>
<path d="M216.989 67.4438C217.729 69.9689 218.888 71.1277 223.899 71.5913C223.167 77.9433 218.929 81.4176 214.179 84.7511C209.998 87.6832 205.418 90.5066 202.475 95.0865C199.46 99.7785 197.546 115.836 192.87 131.694C188.829 145.396 182.727 158.944 172.07 164.88C170.956 162.078 172.212 156.906 169.997 155.206C168.564 159.292 166.944 163.191 165.047 166.815C158.793 178.768 149.535 187.717 134.063 190.449C141.404 180.515 148.424 170.256 148.576 153.134C143.409 154.252 143.519 166.456 138.21 169.719C134.807 170.089 131.359 170.087 127.889 169.878C113.639 169.024 99.0213 164.742 85.6907 169.019C76.614 171.932 69.1907 178.804 61.5046 182.138C52.4711 186.056 45.63 187.667 34.3809 186.056C32.9526 184.132 42.6137 181.649 42.0359 177.471C37.6334 176.984 35.0773 178.051 31.2503 176.312C31.6728 175.534 32.2938 174.885 33.0756 174.345C40.0897 169.49 60.013 173.198 65.3448 167.963C68.6362 164.734 70.7953 161.354 73.0309 158.068C75.1989 154.88 77.4401 151.78 80.8546 148.987C82.1154 147.955 83.4861 146.936 84.941 145.942C90.7597 141.959 97.9578 138.348 105.042 135.858C114.692 132.466 124.47 132.186 134.756 128.256C141.11 125.828 148.02 122.828 153.652 118.631C154.99 117.632 156.255 116.569 157.425 115.429C173.508 99.7507 176.696 72.0947 201.788 69.5175C204.822 69.2059 207.307 69.3068 209.568 69.2381C212.174 69.1605 214.48 68.8577 216.989 67.4438ZM186.399 155.959C186.699 160.752 189.481 170.261 191.937 172.572C187.127 173.742 178.84 171.809 176.714 168.415C177.806 163.516 183.491 159.037 186.399 155.959Z" fill="#C49A6C"/>
<path d="M218.796 72.8102C217.829 74.8387 215.977 77.4541 215.977 82.618C215.969 83.5045 215.304 84.1118 215.293 82.7451C215.343 77.6982 216.679 75.5164 218.098 72.649C218.757 71.4741 219.155 71.9588 218.796 72.8102ZM217.822 72.0462C216.681 73.9817 213.934 77.512 213.48 82.6565C213.396 83.5386 212.679 84.0846 212.788 82.7213C213.282 77.6993 215.478 74.5561 217.144 71.8237C217.9 70.7124 218.256 71.23 217.822 72.0462ZM216.934 71.0337C215.634 72.8658 211.406 77.1056 210.522 82.1945C210.363 83.0652 209.602 83.5511 209.826 82.2014C210.741 77.2373 214.386 73.3358 216.276 70.7555C217.123 69.7101 217.433 70.2561 216.934 71.0337ZM216.142 69.9042L215.714 70.359C213.824 72.386 209.431 77.33 207.968 81.8551C207.686 82.6951 206.865 83.0697 207.277 81.7643C208.88 76.9785 213.295 71.8237 215.529 69.5353C216.515 68.6192 216.745 69.2038 216.142 69.9042ZM193.447 80.1501C194.426 75.9421 197.699 74.0248 203.349 74.4925C204.712 80.7733 197.083 83.307 193.447 80.1501Z" fill="#002B64"/>
</svg>

<svg xmlns="http://www.w3.org/2000/svg" width="256" height="256" fill="none"><rect width="256" height="256" fill="#F4F2ED" rx="60"/><path fill="#002B64" d="M223.611 62.004c-3.091.098-2.113.989-8.792 2.633-6.744 1.66-14.983 1.15-22.245 4.196-21.681 9.093-26.031 40.169-45.74 51.301-14.733 8.322-29.597 8.986-42.96 13.173-8.782 2.754-18.389 8.401-26.345 15.258-6.177 5.324-6.338 10.006-12.791 16.684-6.902 7.142-27.433.12-36.738 11.052 2.997 3.031 4.312 3.88 10.218 3.094-1.223 2.318-8.432 4.271-7.02 7.681 1.484 3.588 18.913 6.02 34.756-3.545 7.379-4.455 13.256-10.876 24.747-12.409 14.871-1.982 32.001 1.272 49.216 3.754-2.553 7.611-7.677 12.673-11.783 18.734-1.271 1.369 2.554 1.523 6.917.695 7.849-1.941 13.505-3.503 19.429-6.951 7.277-4.237 8.38-15.098 17.309-17.448 4.975 7.646 18.506 9.453 26.902 3.337-7.368-2.086-9.404-17.768-6.917-24.678 2.356-6.541 4.683-17.004 7.056-25.65 2.547-9.286 3.486-20.99 6.569-25.72 4.637-7.117 9.762-9.56 14.211-13.573s8.52-7.92 8.387-17.102c-.043-2.958-1.572-4.606-4.386-4.516"/><path fill="#C49A6C" d="M216.989 67.444c.74 2.525 1.899 3.684 6.91 4.147-.732 6.352-4.97 9.827-9.72 13.16-4.181 2.932-8.761 5.756-11.704 10.335-3.015 4.692-4.929 20.75-9.605 36.608-4.041 13.702-10.143 27.25-20.8 33.186-1.114-2.802.142-7.974-2.073-9.674-1.433 4.086-3.053 7.985-4.95 11.609-6.254 11.953-15.512 20.902-30.984 23.634 7.341-9.934 14.361-20.193 14.513-37.315-5.167 1.118-5.057 13.322-10.366 16.585-3.403.37-6.851.368-10.321.159-14.25-.854-28.868-5.136-42.198-.859-9.077 2.913-16.5 9.785-24.186 13.119-9.034 3.918-15.875 5.529-27.124 3.918-1.428-1.924 8.233-4.407 7.655-8.585-4.403-.487-6.959.58-10.786-1.159.423-.778 1.044-1.427 1.826-1.967 7.014-4.855 26.937-1.147 32.269-6.382 3.291-3.229 5.45-6.609 7.686-9.895 2.168-3.188 4.41-6.288 7.824-9.081a59 59 0 0 1 4.086-3.045c5.819-3.983 13.017-7.594 20.101-10.084 9.65-3.392 19.428-3.672 29.714-7.602 6.354-2.428 13.264-5.428 18.896-9.625a38 38 0 0 0 3.773-3.202c16.083-15.678 19.271-43.334 44.363-45.912 3.034-.311 5.519-.21 7.78-.279 2.606-.078 4.912-.38 7.421-1.794m-30.59 88.515c.3 4.793 3.082 14.302 5.538 16.613-4.81 1.17-13.097-.763-15.223-4.157 1.092-4.899 6.777-9.378 9.685-12.456"/><path fill="#002B64" d="M218.796 72.81c-.967 2.029-2.819 4.644-2.819 9.808-.008.886-.673 1.494-.684.127.05-5.047 1.386-7.229 2.805-10.096.659-1.175 1.057-.69.698.161m-.974-.764c-1.141 1.936-3.888 5.466-4.342 10.61-.084.883-.801 1.429-.692.065.494-5.022 2.69-8.165 4.356-10.897.756-1.112 1.112-.594.678.222m-.888-1.012c-1.3 1.832-5.528 6.072-6.412 11.16-.159.871-.92 1.357-.696.007.915-4.964 4.56-8.865 6.45-11.445.847-1.046 1.157-.5.658.278m-.792-1.13-.428.455c-1.89 2.027-6.283 6.971-7.746 11.496-.282.84-1.103 1.215-.691-.09 1.603-4.787 6.018-9.941 8.252-12.23.986-.916 1.216-.331.613.37M193.447 80.15c.979-4.208 4.252-6.125 9.902-5.657 1.363 6.28-6.266 8.814-9.902 5.657"/></svg>
